X:1     %Music
T:Farewell to Tarwathie
B:Singing Together, Spring 1986, BBC Publications
F:http://www.folkinfo.org/songs
M:3/4     %Meter
L:1/8     %
K:G
G2 |E2 D2 D2 |E2 D2 D2 |E2 G2 A2 | B4
w:Fare-well to Tar-wa-thie, a-dieu Mor-mond Hill,
 GG |B2 G2 G2 |E D3 D2 |E2 G2 A2 | G4
w:And the dear land of Cri-mond, I bid you fare-well;
(BA) |G2 B2 d2 |e2 d2 B2 |A G3 A2 | B4
w:I'm_ bound out for Green-land and rea-dy to sail,
G2 |B2 G2 G2 |E2 D2 D2 |E G3-GA | G4 |]
w:In hopes to find rich-es in hunt-ing the whale. 